assets/img/components/unav-header-header.svg

<svg width="577" height="146" viewBox="0 0 577 146" fill="none" xmlns="http://www.w3.org/2000/svg">
<path fill-rule="evenodd" clip-rule="evenodd" d="M433 40.7701C433 18.7475 415.349 0.89502 393.576 0.89502H322.969L311.697 0.89502H182.424C160.651 0.89502 143 18.7475 143 40.7701V145.895H311.697L322.969 145.895H433V40.7701Z" fill="#286AD8"/>
<path d="M72.5 145.895C112.541 145.895 145 113.436 145 73.395C145 33.3544 112.541 0.89502 72.5 0.89502C32.4593 0.89502 0 33.3544 0 73.395C0 113.436 32.4593 145.895 72.5 145.895Z" fill="#286AD8"/>
<path d="M537.125 145.895H432C432 65.8137 496.919 0.89502 577 0.89502V106.02C577 128.042 559.147 145.895 537.125 145.895Z" fill="#286AD8"/>
<path d="M217.963 32.7077C217.963 31.1405 219.163 29.8701 220.643 29.8701H274.603C276.083 29.8701 277.282 31.1405 277.282 32.7077C277.282 34.275 276.083 35.5454 274.603 35.5454H220.643C219.163 35.5454 217.963 34.275 217.963 32.7077Z" fill="#5187DF"/>
<path d="M283.61 32.7077C283.61 31.1405 284.811 29.8701 286.291 29.8701H320.441C321.921 29.8701 323.121 31.1405 323.121 32.7077C323.121 34.275 321.921 35.5454 320.441 35.5454H286.291C284.811 35.5454 283.61 34.275 283.61 32.7077Z" fill="#5187DF"/>
<path d="M343.365 32.7077C343.365 31.1405 344.565 29.8701 346.045 29.8701H380.195C381.676 29.8701 382.875 31.1405 382.875 32.7077C382.875 34.275 381.676 35.5454 380.195 35.5454H346.045C344.565 35.5454 343.365 34.275 343.365 32.7077Z" fill="#5187DF"/>
<path d="M204.854 46.892C204.347 47.0715 203.802 47.0603 203.275 47.1373C202.107 47.3401 200.478 47.6763 199.323 47.7151C198.742 47.776 198.463 47.327 198.598 46.748C198.757 46.0219 199.425 45.5771 199.378 44.8142C199.288 43.2665 199.773 41.5457 199.745 39.9821C199.664 38.0294 200.473 36.1714 200.532 34.2414C200.582 32.5819 200.817 30.9227 200.618 29.2767C200.441 27.8154 199.887 26.0805 200.002 24.6088C200.03 24.2515 200.086 24.0313 200.184 23.6903C200.589 22.5595 200.206 21.3688 200.21 20.2527C200.214 18.8545 200.46 18.2705 199.573 18.1054C198.687 17.9402 196.203 18.1838 195.244 18.1202C193.903 18.1566 192.535 18.0903 191.314 18.6696C189.797 19.3993 188.613 20.7203 187.614 22.0329C187.073 22.9091 185.971 23.1812 185.413 24.036C184.85 24.8234 185.311 25.7 185.344 26.5643C185.379 29.2294 184.462 28.833 182.768 30.211C182.036 30.8061 181.053 30.92 180.146 30.941C179.427 30.9576 178.428 31.076 177.732 30.893C177.039 30.7111 176.419 30.1982 175.673 30.1982C174.613 30.0753 172.999 30.1267 171.861 30.3546C171.054 30.5319 170.405 30.6824 170.38 31.5982C170.371 32.4066 171.386 33.2315 171.22 34.0604C170.857 35.5249 169.019 36.4264 167.845 37.1519C167.541 37.3148 167.053 37.5524 166.848 37.8444C166.507 38.3308 166.583 39.8155 166.849 39.8182C171.035 39.8325 183.627 39.8385 189.441 39.8338C190.201 39.901 190.701 40.4418 191.065 41.1524C191.434 41.7998 191.477 42.6501 191.783 43.2963C192.174 43.9777 193.177 44.2605 193.8 44.683C194.61 45.1706 195.367 45.7146 196.253 46.1228C196.739 46.3472 197.364 46.5894 197.661 47.0707C197.799 47.2941 197.841 47.5192 197.828 47.7449C197.81 48.057 197.399 48.2958 197.181 48.4601C196.84 48.7184 196.552 49.0011 196.359 49.3929C196.263 49.5876 196.197 49.8303 196.312 50.014C196.585 50.4497 197.675 50.0277 198.045 49.9038C198.558 49.7316 199.078 49.4975 199.612 49.4019C201.887 48.9937 204.213 48.6495 206.256 47.5574C206.545 47.4027 207.2 47.155 207.281 46.8347C207.481 46.038 205.136 46.7994 204.854 46.892Z" fill="#5187DF"/>
<circle cx="333.243" cy="32.7075" r="3.79395" fill="#5187DF"/>
</svg>

<svg xmlns="http://www.w3.org/2000/svg" width="577" height="146" fill="none" viewBox="0 0 577 146"><path fill="#286ad8" fill-rule="evenodd" d="M433 40.77C433 18.747 415.349.895 393.576.895H182.424C160.651.895 143 18.748 143 40.77v105.125h290z" clip-rule="evenodd"/><path fill="#286ad8" d="M72.5 145.895c40.041 0 72.5-32.459 72.5-72.5S112.541.895 72.5.895 0 33.355 0 73.395s32.46 72.5 72.5 72.5M537.125 145.895H432c0-80.081 64.919-145 145-145V106.02c0 22.022-17.853 39.875-39.875 39.875"/><path fill="#5187df" d="M217.963 32.708c0-1.567 1.2-2.838 2.68-2.838h53.96c1.48 0 2.679 1.27 2.679 2.838 0 1.567-1.199 2.837-2.679 2.837h-53.96c-1.48 0-2.68-1.27-2.68-2.837M283.61 32.708c0-1.567 1.201-2.838 2.681-2.838h34.15c1.48 0 2.68 1.27 2.68 2.838 0 1.567-1.2 2.837-2.68 2.837h-34.15c-1.48 0-2.681-1.27-2.681-2.837M343.365 32.708c0-1.567 1.2-2.838 2.68-2.838h34.15c1.481 0 2.68 1.27 2.68 2.838 0 1.567-1.199 2.837-2.68 2.837h-34.15c-1.48 0-2.68-1.27-2.68-2.837M204.854 46.892c-.507.18-1.052.168-1.579.245-1.168.203-2.797.54-3.952.578-.581.061-.86-.388-.725-.967.159-.726.827-1.17.78-1.934-.09-1.547.395-3.268.367-4.832-.081-1.953.728-3.81.787-5.74.05-1.66.285-3.32.086-4.965-.177-1.462-.731-3.197-.616-4.668.028-.358.084-.578.182-.919.405-1.13.022-2.321.026-3.437.004-1.398.25-1.983-.637-2.148-.886-.165-3.37.079-4.329.015-1.341.037-2.709-.03-3.93.55-1.517.73-2.701 2.05-3.7 3.363-.541.876-1.643 1.148-2.201 2.003-.563.787-.102 1.664-.069 2.528.035 2.665-.882 2.269-2.576 3.647-.732.595-1.715.709-2.622.73-.719.017-1.718.135-2.414-.048-.693-.182-1.313-.695-2.059-.695-1.06-.123-2.674-.071-3.812.157-.807.177-1.456.327-1.481 1.243-.009.809 1.006 1.633.84 2.462-.363 1.465-2.201 2.366-3.375 3.092-.304.163-.792.4-.997.692-.341.487-.265 1.971.001 1.974 4.186.015 16.778.02 22.592.016.76.067 1.26.608 1.624 1.318.369.648.412 1.498.718 2.144.391.682 1.394.965 2.017 1.387.81.488 1.567 1.032 2.453 1.44.486.224 1.111.466 1.408.948.138.223.18.448.167.674-.018.312-.429.55-.647.715-.341.258-.629.541-.822.933-.096.195-.162.437-.047.621.273.436 1.363.014 1.733-.11.513-.172 1.033-.407 1.567-.502 2.275-.408 4.601-.752 6.644-1.845.289-.154.944-.402 1.025-.722.2-.797-2.145-.036-2.427.057"/><circle cx="333.243" cy="32.708" r="3.794" fill="#5187df"/></svg>
